T: Ashmolean House
M: 4/4
L: 1/8
K: Dmaj
|: AF F2 EDBA | D2ED FA A2 | defd efdB | AFDE FEE2 |
AF F2 EDBA | D2ED FAA2 | ABde dBA2 | BDEG FDD2 :||
|: defg a3b | afdf edBA | defg a3b | afdf e3g |
fd d2 Addf | edAd e2fe | dBAF BA A2 | BDEG FDD2:||
